X: 10
T: Dawn, The
Z: Smiley
S: https://thesession.org/tunes/167#setting47522
R: reel
M: 4/4
L: 1/8
K: Gmaj
|:G,2B,D CGEC|~D2FA GFGB|ADBD cDBD|(3ABc BA GEDB,|
G,2B,D CGEC|~D2FA GBdB|cdef gfge|(3Bcd Ac BGG2:|
|:gfgd ed (3Bcd|eaag fdd2|(3fed ad bdad|gbdg bdgb|
gfgd (3efg dB|cdef g2ge|(3Bcd ge dcBA|1 ~G2 FAG2 (3Bcd:|2 ~G2 FA GEDB,||

%-------------------- TUNE SEPARATOR --------------------%

